packages/katcn/src/icons/svg/userBan.svg

<svg width="24" height="25" viewBox="0 0 24 25" fill="none" xmlns="http://www.w3.org/2000/svg">
<path d="M8.49999 5.7761C9.59999 5.2761 10.8 4.9761 12 4.9761C16.4 4.9761 20 8.5761 20 12.9761C20 14.1761 19.7 15.3761 19.2 16.4761C19 16.9761 19.2 17.5761 19.7 17.7761C19.8 17.8761 20 17.8761 20.1 17.8761C20.5 17.8761 20.8 17.6761 21 17.2761C21.7 15.8761 22 14.3761 22 12.8761C22 7.3761 17.5 2.8761 12 2.8761C10.5 2.9761 8.99999 3.2761 7.59999 3.9761C7.09999 4.2761 6.89999 4.8761 7.09999 5.3761C7.39999 5.8761 7.99999 6.0761 8.49999 5.7761Z" fill="black"/>
<path d="M15.2 13.1761H15.3C15.8 13.1761 16.2 12.7761 16.3 12.2761C16.3 12.0761 16.3 11.8761 16.3 11.7761C16.3 9.37607 14.4 7.47607 12 7.47607C11.8 7.47607 11.6 7.47607 11.5 7.47607C10.9 7.57607 10.5 8.07607 10.6 8.67607C10.7 9.17607 11.2 9.57607 11.7 9.57607C11.8 9.57607 11.9 9.57607 12 9.57607C13.3 9.57607 14.3 10.5761 14.3 11.8761C14.3 11.9761 14.3 12.0761 14.3 12.1761C14.2 12.5761 14.6 13.0761 15.2 13.1761Z" fill="black"/>
<path d="M3.7 3.27607C3.3 2.87607 2.7 2.87607 2.3 3.27607C1.9 3.67607 1.9 4.27607 2.3 4.67607L4.3 6.67607C2.8 8.47607 2 10.6761 2 12.9761C2 18.4761 6.5 22.9761 12 22.9761C14.3 22.9761 16.5 22.1761 18.3 20.6761L20.3 22.6761C20.5 22.8761 20.8 22.9761 21 22.9761C21.2 22.9761 21.5 22.8761 21.7 22.6761C22.1 22.2761 22.1 21.6761 21.7 21.2761L3.7 3.27607ZM12 20.9761C7.6 20.9761 4 17.3761 4 12.9761C4 11.1761 4.6 9.47607 5.7 8.07607L8 10.3761C7.8 10.8761 7.7 11.3761 7.7 11.8761C7.7 13.0761 8.2 14.0761 8.9 14.8761C8 15.2761 7.2 15.7761 6.5 16.4761C6.1 16.8761 6.1 17.4761 6.5 17.8761C6.7 17.9761 7 18.0761 7.2 18.0761C7.5 18.0761 7.7 17.9761 7.9 17.7761C9.5 16.1761 12 15.6761 14.1 16.5761L16.8 19.2761C15.5 20.3761 13.8 20.9761 12 20.9761Z" fill="black"/>
</svg>

<svg xmlns="http://www.w3.org/2000/svg" fill="none" viewBox="0 0 24 25"><path fill="#000" d="M8.5 5.776c1.1-.5 2.3-.8 3.5-.8 4.4 0 8 3.6 8 8 0 1.2-.3 2.4-.8 3.5-.2.5 0 1.1.5 1.3.1.1.3.1.4.1q.6 0 .9-.6c.7-1.4 1-2.9 1-4.4 0-5.5-4.5-10-10-10-1.5.1-3 .4-4.4 1.1-.5.3-.7.9-.5 1.4.3.5.9.7 1.4.4"/><path fill="#000" d="M15.2 13.176h.1c.5 0 .9-.4 1-.9v-.5c0-2.4-1.9-4.3-4.3-4.3h-.5c-.6.1-1 .6-.9 1.2.1.5.6.9 1.1.9h.3c1.3 0 2.3 1 2.3 2.3v.3c-.1.4.3.9.9 1m-11.5-9.9c-.4-.4-1-.4-1.4 0s-.4 1 0 1.4l2 2c-1.5 1.8-2.3 4-2.3 6.3 0 5.5 4.5 10 10 10 2.3 0 4.5-.8 6.3-2.3l2 2c.2.2.5.3.7.3s.5-.1.7-.3c.4-.4.4-1 0-1.4zm8.3 17.7c-4.4 0-8-3.6-8-8 0-1.8.6-3.5 1.7-4.9l2.3 2.3q-.3.75-.3 1.5c0 1.2.5 2.2 1.2 3-.9.4-1.7.9-2.4 1.6-.4.4-.4 1 0 1.4.2.1.5.2.7.2.3 0 .5-.1.7-.3 1.6-1.6 4.1-2.1 6.2-1.2l2.7 2.7c-1.3 1.1-3 1.7-4.8 1.7"/></svg>
